X: 3
T: Missa Preter rerum / Credo
N: Derived from Das1002c-Missa_Preter_rerum-Credo.krn
C: Ludwig Daser
%%abc-version 2.0
%%abcx-abcm2ps-target-version 5.9.1 (29 Sep 2008)
%%abc-creator hum2abc beta
%%abcx-conversion-date 2019/02/16 20:30:01
%%abc-edited-by Jesse Rodin
%%abc-edited-by Stephanie P. Schlagel 2016/05/23
%%abcx-initial-encoding-date 2016/05/23/
%%humdrum-veritas 2324004507
%%humdrum-veritas-data 123921821
%%linebreak <none>
%%barnumbers 0
L: 1/4
M: 2/1
Q: 1/2=120
V: 1 clef=treble
V: 2 clef=treble-8
V: 3 clef=treble-8
V: 4 clef=treble-8
V: 5 clef=bass
V: 6 clef=bass
K: F
[V:1] G6A2 | 
[V:2] z8 | 
[V:3] z8 | 
[V:4] z8 | 
[V:5] z8 | 
[V:6] z8 | 
[V:1] B4c4 | 
[V:2] z8 | 
[V:3] z8 | 
[V:4] z8 | 
[V:5] z8 | 
[V:6] z8 | 
[V:1] B2G2B2c2 | 
[V:2] G6A2 | 
[V:3] z8 | 
[V:4] z8 | 
[V:5] z8 | 
[V:6] z8 | 
[V:1] d4_e4 | 
[V:2] B4c4 | 
[V:3] z8 | 
[V:4] z8 | 
[V:5] z8 | 
[V:6] z8 | 
[V:1] d6cB | 
[V:2] B2G2B2c2 | 
[V:3] z8 | 
[V:4] z8 | 
[V:5] z8 | 
[V:6] z8 | 
[V:1] A2B4AG | 
[V:2] d4_e4 | 
[V:3] z8 | 
[V:4] z8 | 
[V:5] z8 | 
[V:6] z8 | 
[V:1] F3GABc2- | 
[V:2] d6cB | 
[V:3] z8 | 
[V:4] z8 | 
[V:5] D,6E,2 | 
[V:6] z8 | 
[V:1] cBA4G2 | 
[V:2] A2c2B4 | 
[V:3] z8 | 
[V:4] z8 | 
[V:5] F,4G,4 | 
[V:6] z8 | 
[V:1] A6GF | 
[V:2] A2f4ed | 
[V:3] z8 | 
[V:4] z8 | 
[V:5] F,2D,2F,2G,2 | 
[V:6] z8 | 
[V:1] E2A4G2 | 
[V:2] c2f3ed2- | 
[V:3] z8 | 
[V:4] z8 | 
[V:5] A,4B,4 | 
[V:6] z8 | 
[V:1] F2EDE4 | 
[V:2] d2^c=B^c4 | 
[V:3] z8 | 
[V:4] z8 | 
[V:5] A,8 | 
[V:6] z8 | 
[V:1] D2F3GAG/A/ | 
[V:2] d4z4 | 
[V:3] z8 | 
[V:4] z8 | 
[V:5] z2D,3E,F,2 | 
[V:6] z8 | 
[V:1] B2A2F4 | 
[V:2] d8 | 
[V:3] z8 | 
[V:4] z8 | 
[V:5] G,2F,2B,3A, | 
[V:6] z8 | 
[V:1] z2F3GAG/A/ | 
[V:2] d8 | 
[V:3] z8 | 
[V:4] z8 | 
[V:5] G,2F,2D,4 | 
[V:6] z8 | 
[V:1] B2A2F2A2 | 
[V:2] d8 | 
[V:3] z8 | 
[V:4] z8 | 
[V:5] z2D,3E,F,2 | 
[V:6] z8 | 
[V:1] B2A4G2 | 
[V:2] d4d4 | 
[V:3] z8 | 
[V:4] z8 | 
[V:5] G,2F,2B,2B,2 | 
[V:6] z8 | 
[V:1] A2A2G2c2 | 
[V:2] e8 | 
[V:3] z8 | 
[V:4] z8 | 
[V:5] A,3B,C2A,2 | 
[V:6] z8 | 
[V:1] c2BAG2A2 | 
[V:2] c8- | 
[V:3] z8 | 
[V:4] z8 | 
[V:5] A,2G,F,C2F,2- | 
[V:6] z8 | 
[V:1] A2GFE2E2 | 
[V:2] c8 | 
[V:3] z8 | 
[V:4] z8 | 
[V:5] F,2E,D,A,4 | 
[V:6] z8 | 
[V:1] D4z2A2- | 
[V:2] f8 | 
[V:3] z8 | 
[V:4] z8 | 
[V:5] z2B,2A,2F,2- | 
[V:6] z8 | 
[V:1] ABc2d2c2 | 
[V:2] f8 | 
[V:3] z8 | 
[V:4] z8 | 
[V:5] F,G,A,G,/A,/B,2A,2 | 
[V:6] z8 | 
[V:1] A2F2A3B | 
[V:2] f4f4 | 
[V:3] z8 | 
[V:4] z8 | 
[V:5] F,4z2D,2 | 
[V:6] z8 | 
[V:1] c4z2c2- | 
[V:2] e8 | 
[V:3] z8 | 
[V:4] z8 | 
[V:5] A,4G,2A,2 | 
[V:6] z8 | 
[V:1] c2BAB2A2- | 
[V:2] d8 | 
[V:3] z8 | 
[V:4] z8 | 
[V:5] F,4G,2F,2- | 
[V:6] z8 | 
[V:1] A2GFG4 | 
[V:2] c8 | 
[V:3] z8 | 
[V:4] z8 | 
[V:5] F,2E,D,E,4 | 
[V:6] z8 | 
[V:1] F2DEFGA2 | 
[V:2] d6c2 | 
[V:3] z8 | 
[V:4] z8 | 
[V:5] D,4z2F,2 | 
[V:6] z8 | 
[V:1] D2G4^F2 | 
[V:2] B2G2A2A2 | 
[V:3] z8 | 
[V:4] z8 | 
[V:5] G,2E,2D,4 | 
[V:6] z8 | 
[V:1] G2B3cd2 | 
[V:2] G2d2d2d2 | 
[V:3] G8 | 
[V:4] B6B2 | 
[V:5] G,,2G,2D,2G,2 | 
[V:6] G,,6G,,2 | 
[V:1] G2_e2e2d2 | 
[V:2] _e2g3fd2 | 
[V:3] G8 | 
[V:4] c2c4d2 | 
[V:5] _E,2C,2G,2G,2- | 
[V:6] C,6B,,2 | 
[V:1] G2c4BA | 
[V:2] _e2c2d2d2 | 
[V:3] G8 | 
[V:4] c4z4 | 
[V:5] G,F,_E,2D,4 | 
[V:6] C,4G,,4 | 
[V:1] B2B2c4 | 
[V:2] d2d2c2_e2- | 
[V:3] G8 | 
[V:4] z4z2c2 | 
[V:5] z2D,2_E,2C,2 | 
[V:6] z2G,,2C,3C, | 
[V:1] G2B4AG | 
[V:2] e2d4c2 | 
[V:3] G8 | 
[V:4] c2d2B2c2 | 
[V:5] G,6C,2 | 
[V:6] C,2B,,2_E,2E,2 | 
[V:1] F4z2F2- | 
[V:2] d2D2F3G | 
[V:3] A8- | 
[V:4] A2d2d4 | 
[V:5] F,4z2F,2- | 
[V:6] D,4D,2D,2- | 
[V:1] FGA2D2F2- | 
[V:2] ABc2d4 | 
[V:3] A4F4- | 
[V:4] d2c3BB2- | 
[V:5] F,2E,2D,2B,,2 | 
[V:6] D,C,A,,2B,,4 | 
[V:1] FGA2D4 | 
[V:2] c4B2B2 | 
[V:3] F8 | 
[V:4] B2A2B2B2 | 
[V:5] C,4D,4 | 
[V:6] F,,4B,,2B,,2 | 
[V:1] z4z2d2 | 
[V:2] d3ef2f2 | 
[V:3] F8 | 
[V:4] B2B2A2A2 | 
[V:5] z4z2A,2 | 
[V:6] B,,3C,D,2D,2 | 
[V:1] d4d2B2- | 
[V:2] d4z2g2- | 
[V:3] z4B4- | 
[V:4] G8- | 
[V:5] B,4B,2G,2- | 
[V:6] G,,8- | 
[V:1] Bcd2G2G2 | 
[V:2] gfd2_e4 | 
[V:3] B4B4 | 
[V:4] G4z4 | 
[V:5] G,A,B,2_E,3F, | 
[V:6] G,,4z4 | 
[V:1] B3cd2D2- | 
[V:2] d8 | 
[V:3] B8 | 
[V:4] z2D3EF2 | 
[V:5] G,2G,2F,2D,2 | 
[V:6] z2G,,2B,,2B,,2 | 
[V:1] DEF2G4 | 
[V:2] z2d4G2 | 
[V:3] B8 | 
[V:4] G2F4E2 | 
[V:5] D,4B,,4 | 
[V:6] B,,3A,,G,,4 | 
[V:1] A8 | 
[V:2] c3BAGF2- | 
[V:3] A8- | 
[V:4] F2F3GAB | 
[V:5] C,4D,4 | 
[V:6] F,,2F,,2F,,3G,, | 
[V:1] z2A4F2 | 
[V:2] F2E2F2f2- | 
[V:3] A8 | 
[V:4] c8- | 
[V:5] C,8- | 
[V:6] A,,4F,,4 | 
[V:1] G3AB2G2- | 
[V:2] f2e2d2e2- | 
[V:3] G8- | 
[V:4] c4z4 | 
[V:5] C,4z2C,2- | 
[V:6] C,4B,,2C,2 | 
[V:1] GAB4AG | 
[V:2] edd4c2 | 
[V:3] G8 | 
[V:4] z8 | 
[V:5] C,2B,,2_E,4 | 
[V:6] G,,4z4 | 
[V:1] BAd4c2 | 
[V:2] d4z4 | 
[V:3] F8 | 
[V:4] z2A2B2cA | 
[V:5] D,3C,B,,2A,,2 | 
[V:6] z8 | 
[V:1] B3cd2G2- | 
[V:2] z2g3f_e2 | 
[V:3] G8- | 
[V:4] d6c2 | 
[V:5] G,,3A,,B,,2C,2 | 
[V:6] z8 | 
[V:1] G2c4B2 | 
[V:2] d2c2g4- | 
[V:3] G8 | 
[V:4] d2_e2d4 | 
[V:5] B,,2C,2G,,4 | 
[V:6] z8 | 
[V:1] c3BA2G2 | 
[V:2] g2f2_e4 | 
[V:3] z8 | 
[V:4] c4c4 | 
[V:5] C,4z4 | 
[V:6] C,6C,2 | 
[V:1] F8 | 
[V:2] d8 | 
[V:3] z4F4 | 
[V:4] A2B2A3B | 
[V:5] z8 | 
[V:6] D,4D,4 | 
[V:1] z8 | 
[V:2] z4z2e2 | 
[V:3] G8 | 
[V:4] c2d4^c2 | 
[V:5] z8 | 
[V:6] E,8 | 
[V:1] z4F4 | 
[V:2] f2d2f4 | 
[V:3] A8 | 
[V:4] d8 | 
[V:5] z2F,2F,2D,2 | 
[V:6] D,8 | 
[V:1] G8 | 
[V:2] edd3^c^c=B | 
[V:3] G8 | 
[V:4] z4z2e2 | 
[V:5] G,F,E,D,E,4 | 
[V:6] z8 | 
[V:1] A8 | 
[V:2] d8 | 
[V:3] z4F4 | 
[V:4] f2d2f4 | 
[V:5] D,8 | 
[V:6] z2F,2F,2D,2 | 
[V:1] G8 | 
[V:2] z4z2e2 | 
[V:3] G8 | 
[V:4] e2d4^c2 | 
[V:5] z8 | 
[V:6] G,F,E,D,E,4 | 
[V:1] z4F4 | 
[V:2] f2d2f4 | 
[V:3] A8 | 
[V:4] d8 | 
[V:5] z2F,2F,2D,2 | 
[V:6] D,8 | 
[V:1] G8 | 
[V:2] edd3^c^c=B | 
[V:3] G8 | 
[V:4] z8 | 
[V:5] G,F,E,D,E,2E,2 | 
[V:6] z2G,2G,2G,2- | 
[V:1] A8 | 
[V:2] d8 | 
[V:3] z2d3cA2 | 
[V:4] z4z2d2 | 
[V:5] D,8 | 
[V:6] G,2F,E,F,2F,2 | 
[V:1] G4z4 | 
[V:2] z2g2g2g2- | 
[V:3] B2G2B4 | 
[V:4] d2d4cB | 
[V:5] G,,8 | 
[V:6] G,2D,2G,4 | 
[V:1] z4z2D2 | 
[V:2] g2fef2f2 | 
[V:3] G4A4 | 
[V:4] c2c2d3c | 
[V:5] z4z2D,2 | 
[V:6] E,4D,4 | 
[V:1] D2D4CB, | 
[V:2] g8 | 
[V:3] G4z4 | 
[V:4] B3AG4 | 
[V:5] G,2D,2E,4 | 
[V:6] G,,4z2G,2 | 
[V:1] C4D4- | 
[V:2] z8 | 
[V:3] z8 | 
[V:4] z2G2A4- | 
[V:5] E,4D,4- | 
[V:6] G,2G,4F,E, | 
[V:1] D2F4ED | 
[V:2] z4z2g2 | 
[V:3] z8 | 
[V:4] A2B2c4 | 
[V:5] D,4C,4- | 
[V:6] F,2F,2G,4- | 
[V:1] E4D2d2 | 
[V:2] g2g4fe | 
[V:3] z4z2d2- | 
[V:4] c4B2AG | 
[V:5] C,4D,4- | 
[V:6] G,4G,4 | 
[V:1] d2d4cB | 
[V:2] f2f2g4 | 
[V:3] d2d2d2d2 | 
[V:4] A2A2G4 | 
[V:5] D,4z2D,2 | 
[V:6] D,4G,,4 | 
[V:1] c2c2d2B2- | 
[V:2] e2e2d4 | 
[V:3] c4z2d2- | 
[V:4] G4B3c | 
[V:5] E,4F,2G,2 | 
[V:6] C,4B,,2G,,2 | 
[V:1] B2AGFGAF | 
[V:2] z8 | 
[V:3] d2cBA2A2 | 
[V:4] d2_e2d4 | 
[V:5] F,2_E,2F,4 | 
[V:6] B,,2C,2D,4 | 
[V:1] G8- | 
[V:2] G4G2c2- | 
[V:3] G8- | 
[V:4] B4z4 | 
[V:5] D,2G,3F,_E,2 | 
[V:6] G,,8- | 
[V:1] G8- | 
[V:2] c2B2c2_e2 | 
[V:3] G8- | 
[V:4] G4G2c2- | 
[V:5] D,4C,4 | 
[V:6] G,,4z4 | 
[V:1] G8 | 
[V:2] d4z2c2 | 
[V:3] G8 | 
[V:4] c2c2c2_e2 | 
[V:5] z2G,2C,2C,2 | 
[V:6] z8 | 
[V:1] z4D4 | 
[V:2] B3AG2F2 | 
[V:3] z8 | 
[V:4] d3cB2A2 | 
[V:5] G,4z4 | 
[V:6] z8 | 
[V:1] D2G4F2 | 
[V:2] B4A4 | 
[V:3] z8 | 
[V:4] G4z2c2 | 
[V:5] z8 | 
[V:6] z8 | 
[V:1] G2B2A4 | 
[V:2] G2g4f2 | 
[V:3] z4D4 | 
[V:4] B2G2d4- | 
[V:5] z8 | 
[V:6] z8 | 
[V:1] F2B4A2- | 
[V:2] d6f2 | 
[V:3] D2G4F2 | 
[V:4] d2B2B2c2- | 
[V:5] z8 | 
[V:6] z8 | 
[V:1] A2G2A4- | 
[V:2] e2d2e4 | 
[V:3] G2B2A4- | 
[V:4] cAd4^c2 | 
[V:5] z8 | 
[V:6] z8 | 
[V:1] A4z4 | 
[V:2] f6d2 | 
[V:3] A2F2B4 | 
[V:4] d8 | 
[V:5] D,4D,2G,2- | 
[V:6] z8 | 
[V:1] z4z4 | 
[V:2] d8 | 
[V:3] A4G4- | 
[V:4] D4z4 | 
[V:5] G,2F,2G,2B,2- | 
[V:6] z4G,,4 | 
[V:1] z4z4 | 
[V:2] z4g4 | 
[V:3] G8- | 
[V:4] z4G4 | 
[V:5] B,A,G,F,_E,2D,2 | 
[V:6] G,,2C,4B,,2 | 
[V:1] z4z4 | 
[V:2] g2g2f4 | 
[V:3] G4z4 | 
[V:4] G2c4B2 | 
[V:5] _E,2C,2F,4 | 
[V:6] C,2_E,2D,4 | 
[V:1] G4G2c2- | 
[V:2] _e2c2d2_ef | 
[V:3] z8 | 
[V:4] c2_e2d2c2 | 
[V:5] G,8- | 
[V:6] C,4B,,2C,2 | 
[V:1] c2B2c2_e2- | 
[V:2] g4_e2c2 | 
[V:3] z8 | 
[V:4] d4c4- | 
[V:5] G,8 | 
[V:6] G,,4C,4 | 
[V:1] e2dcd2c2- | 
[V:2] g4d2f2- | 
[V:3] z2G4A2 | 
[V:4] c2B4A2 | 
[V:5] z8 | 
[V:6] z8 | 
[V:1] cBB4A2 | 
[V:2] f2e2f4 | 
[V:3] B4c4 | 
[V:4] G4F4 | 
[V:5] z8 | 
[V:6] z8 | 
[V:1] B8 | 
[V:2] d8 | 
[V:3] B4z4 | 
[V:4] B8 | 
[V:5] G,4G,2G,2- | 
[V:6] G,,4G,,2G,,2 | 
[V:1] z4z4 | 
[V:2] z8 | 
[V:3] z8 | 
[V:4] B8 | 
[V:5] G,2F,E,F,2F,2 | 
[V:6] D,6C,B,, | 
[V:1] z4z4 | 
[V:2] z8 | 
[V:3] z8 | 
[V:4] B4A4 | 
[V:5] G,2F,4_E,2 | 
[V:6] _E,2D,4C,2 | 
[V:1] z8 | 
[V:2] z8 | 
[V:3] z8 | 
[V:4] G4^F4 | 
[V:5] D,2_E,2C,4 | 
[V:6] B,,2C,2A,,4 | 
[V:1] B8 | 
[V:2] g4g2g2- | 
[V:3] G4G2G2 | 
[V:4] G4z4 | 
[V:5] D,8 | 
[V:6] G,,8 | 
[V:1] B8 | 
[V:2] g2fef2f2 | 
[V:3] d6cB | 
[V:4] z8 | 
[V:5] z8 | 
[V:6] z8 | 
[V:1] B4A4 | 
[V:2] g2f6 | 
[V:3] _e2d4c2 | 
[V:4] z8 | 
[V:5] z4z2F,2 | 
[V:6] z8 | 
[V:1] G4^F4 | 
[V:2] d2e2d4 | 
[V:3] B2c2A4 | 
[V:4] z4A4 | 
[V:5] G,2C,2D,4- | 
[V:6] z8 | 
[V:1] G8- | 
[V:2] z2g4f2 | 
[V:3] G8- | 
[V:4] B2d4d2 | 
[V:5] D,2G,,2D,4 | 
[V:6] G,,4B,,4 | 
[V:1] G8- | 
[V:2] e2d4c2 | 
[V:3] G8- | 
[V:4] c2d2G3A | 
[V:5] z2D,2_E,4 | 
[V:6] C,2B,,2C,4 | 
[V:1] G8- | 
[V:2] d8- | 
[V:3] G8- | 
[V:4] B8 | 
[V:5] D,2G,2G,4 | 
[V:6] G,,8 | 
[V:1] G8 ||  
[V:2] d8 ||  
[V:3] G8 ||  
[V:4] B8 ||  
[V:5] D,8 ||  
[V:6] G,,8 ||  
[V:1]  [K:F] [K:clef=treble][M:2/1]G8 | 
[V:2]  [K:F] [K:clef=treble-8][M:2/1]d8 | 
[V:3]  [K:F] [K:clef=treble-8][M:2/1]B8 | 
[V:4]  [K:F] [K:clef=treble-8][M:2/1]z8 | 
[V:5]  [K:F] [K:clef=bass][M:2/1]G,8 | 
[V:6]  [K:F] [K:clef=bass][M:2/1]z8 | 
[V:1] F4G4 | 
[V:2] d4d4 | 
[V:3] A4B4 | 
[V:4] z8 | 
[V:5] D,4G,4 | 
[V:6] z8 | 
[V:1] G6G2 | 
[V:2] e6e2 | 
[V:3] c6c2 | 
[V:4] z8 | 
[V:5] C,6C,2 | 
[V:6] z8 | 
[V:1] G4z2A2 | 
[V:2] e4z2f2 | 
[V:3] c4c4 | 
[V:4] z8 | 
[V:5] C,4F,4 | 
[V:6] z8 | 
[V:1] B6A2 | 
[V:2] f6f2 | 
[V:3] d6c2 | 
[V:4] z8 | 
[V:5] B,,3C,D,E,F,2 | 
[V:6] z8 | 
[V:1] G2F2G4 | 
[V:2] _e2d4c2 | 
[V:3] B2A2G4 | 
[V:4] z8 | 
[V:5] G,2D,2_E,4 | 
[V:6] z8 | 
[V:1] F2B3AA2- | 
[V:2] d8- | 
[V:3] A2B2G2A2 | 
[V:4] z8 | 
[V:5] D,2G,4F,2 | 
[V:6] z8 | 
[V:1] A2G2A4 | 
[V:2] d8 | 
[V:3] B4A4- | 
[V:4] D4F4 | 
[V:5] G,4z2D,2 | 
[V:6] G,,4D,4 | 
[V:1] A8 | 
[V:2] z2d3ef2- | 
[V:3] A8 | 
[V:4] E2D2F4 | 
[V:5] E,2F,3E,C,2 | 
[V:6] C,2D,3C,A,,2 | 
[V:1] G4A4- | 
[V:2] f2e2f3e | 
[V:3] z4A4- | 
[V:4] G4F4- | 
[V:5] D,2E,2C,2C,2 | 
[V:6] B,,2C,2F,,4- | 
[V:1] A4B4 | 
[V:2] d2c2B4 | 
[V:3] A4G4 | 
[V:4] F4z4 | 
[V:5] D,2F,4E,2 | 
[V:6] F,,4G,,4 | 
[V:1] A6F2 | 
[V:2] z2d4d2 | 
[V:3] A8 | 
[V:4] z2F4D2 | 
[V:5] F,4z2F,2 | 
[V:6] D,8 | 
[V:1] G4F4 | 
[V:2] d4d4 | 
[V:3] B4A4- | 
[V:4] G4D2A2- | 
[V:5] D,3E,F,4- | 
[V:6] G,,4D,4 | 
[V:1] A4B4- | 
[V:2] c2f4e2 | 
[V:3] A2F2G4 | 
[V:4] ABc2B3c | 
[V:5] F,4z4 | 
[V:6] z8 | 
[V:1] B4B4 | 
[V:2] f8 | 
[V:3] F8 | 
[V:4] d4d4 | 
[V:5] z2D,2D,E,F,G, | 
[V:6] B,,8 | 
[V:1] A4c4- | 
[V:2] f4f2f2- | 
[V:3] F8 | 
[V:4] c8 | 
[V:5] A,6A,2 | 
[V:6] F,,4F,,4 | 
[V:1] c4G4 | 
[V:2] f2ede2c2 | 
[V:3] G8- | 
[V:4] c8 | 
[V:5] G,4E,4 | 
[V:6] C,4C,4 | 
[V:1] B6AG | 
[V:2] g8 | 
[V:3] G8 | 
[V:4] d8 | 
[V:5] D,4z2D,2 | 
[V:6] G,,4z2G,,2 | 
[V:1] F2A2A3B | 
[V:2] z2f4ed | 
[V:3] A8- | 
[V:4] d8 | 
[V:5] F,2D,2F,2F,2 | 
[V:6] D,8 | 
[V:1] c4c2c2- | 
[V:2] c8 | 
[V:3] A8 | 
[V:4] =e8 | 
[V:5] E,4z2E,2 | 
[V:6] A,,8 | 
[V:1] c2BAG3A | 
[V:2] c8 | 
[V:3] G8- | 
[V:4] =e8 | 
[V:5] E,4C,4 | 
[V:6] C,4C,4 | 
[V:1] B6G2 | 
[V:2] B8- | 
[V:3] G8- | 
[V:4] d8- | 
[V:5] D,6D,2 | 
[V:6] G,,8- | 
[V:1] G8 ||  
[V:2] B8 ||  
[V:3] G8 ||  
[V:4] d8 ||  
[V:5] D,8 ||  
[V:6] G,,8 ||  
[V:1]  [K:F] [K:clef=treble][M:2/1]D8 | 
[V:2]  [K:F] [K:clef=treble-8][M:2/1]z8 | 
[V:3]  [K:F] [K:clef=treble-8][M:2/1]z8 | 
[V:4]  [K:F] [K:clef=treble-8][M:2/1]z8 | 
[V:5]  [K:F] [K:clef=bass][M:2/1]z8 | 
[V:6]  [K:F] [K:clef=bass][M:2/1]z8 | 
[V:1] D4A4- | 
[V:2] z4D4- | 
[V:3] z8 | 
[V:4] z8 | 
[V:5] z8 | 
[V:6] z8 | 
[V:1] A2GFB2A2- | 
[V:2] D4D4 | 
[V:3] z8 | 
[V:4] z8 | 
[V:5] z8 | 
[V:6] z8 | 
[V:1] A2GFE4 | 
[V:2] A6GF | 
[V:3] z8 | 
[V:4] z8 | 
[V:5] z8 | 
[V:6] z8 | 
[V:1] D2F4ED | 
[V:2] B2A4GF | 
[V:3] z8 | 
[V:4] z8 | 
[V:5] z8 | 
[V:6] z8 | 
[V:1] C4D4 | 
[V:2] E2A2B2G2- | 
[V:3] z8 | 
[V:4] z8 | 
[V:5] z8 | 
[V:6] z8 | 
[V:1] z2D4D2 | 
[V:2] GABcdef2- | 
[V:3] z8 | 
[V:4] z8 | 
[V:5] z8 | 
[V:6] z8 | 
[V:1] A6GF | 
[V:2] f2edc2c2 | 
[V:3] z8 | 
[V:4] z8 | 
[V:5] z8 | 
[V:6] z8 | 
[V:1] B2A4G2- | 
[V:2] d4c2B2- | 
[V:3] z8 | 
[V:4] z8 | 
[V:5] z8 | 
[V:6] z8 | 
[V:1] GFFE/D/E4 | 
[V:2] BAd4^c2 | 
[V:3] z8 | 
[V:4] z8 | 
[V:5] z8 | 
[V:6] z8 | 
[V:1] D2A2B3G | 
[V:2] d8 | 
[V:3] z8 | 
[V:4] z8 | 
[V:5] z8 | 
[V:6] z8 | 
[V:1] B2A2F2G2- | 
[V:2] z2A2B3G | 
[V:3] z8 | 
[V:4] z8 | 
[V:5] z8 | 
[V:6] z8 | 
[V:1] G2A3DG2- | 
[V:2] B2A2F2G2 | 
[V:3] z8 | 
[V:4] z8 | 
[V:5] z8 | 
[V:6] z8 | 
[V:1] G2^F2G4 | 
[V:2] A4GABc | 
[V:3] z8 | 
[V:4] z8 | 
[V:5] z8 | 
[V:6] z8 | 
[V:1] z4D4 | 
[V:2] B2GABcd2- | 
[V:3] z8 | 
[V:4] z8 | 
[V:5] z8 | 
[V:6] z8 | 
[V:1] A4z4 | 
[V:2] d2cBA2B2- | 
[V:3] z8 | 
[V:4] z8 | 
[V:5] z8 | 
[V:6] z8 | 
[V:1] D4A3B | 
[V:2] B2AGF4 | 
[V:3] z8 | 
[V:4] z8 | 
[V:5] z8 | 
[V:6] z8 | 
[V:1] c2B2G3A | 
[V:2] z4G4 | 
[V:3] z8 | 
[V:4] z8 | 
[V:5] z8 | 
[V:6] z8 | 
[V:1] B2A2F2A2 | 
[V:2] d4z4 | 
[V:3] z8 | 
[V:4] z8 | 
[V:5] z8 | 
[V:6] z8 | 
[V:1] G4F3E | 
[V:2] G4d3e | 
[V:3] z8 | 
[V:4] z8 | 
[V:5] z8 | 
[V:6] z8 | 
[V:1] D2C2c4- | 
[V:2] f2e2c3d | 
[V:3] z8 | 
[V:4] z8 | 
[V:5] z8 | 
[V:6] z8 | 
[V:1] c2B4AG | 
[V:2] _e2d2B2d2- | 
[V:3] z8 | 
[V:4] z8 | 
[V:5] z8 | 
[V:6] z8 | 
[V:1] F2B4A2 | 
[V:2] d2cBc4 | 
[V:3] z8 | 
[V:4] z8 | 
[V:5] z8 | 
[V:6] z8 | 
[V:1] B2A3GG2- | 
[V:2] B2c3GB2 | 
[V:3] z8 | 
[V:4] z8 | 
[V:5] z8 | 
[V:6] z8 | 
[V:1] G2^F2G4 | 
[V:2] A4z2G2 | 
[V:3] z8 | 
[V:4] z8 | 
[V:5] z8 | 
[V:6] z8 | 
[V:1] z2D2F2F2 | 
[V:2] B2B2A4 | 
[V:3] z8 | 
[V:4] z8 | 
[V:5] z8 | 
[V:6] z8 | 
[V:1] E4D4 | 
[V:2] G4z2d2 | 
[V:3] z8 | 
[V:4] z8 | 
[V:5] z8 | 
[V:6] z8 | 
[V:1] z4z2G2 | 
[V:2] f2f2e4 | 
[V:3] z8 | 
[V:4] z8 | 
[V:5] z8 | 
[V:6] z8 | 
[V:1] B2B2A4 | 
[V:2] d2g4f2 | 
[V:3] z8 | 
[V:4] z8 | 
[V:5] z8 | 
[V:6] z8 | 
[V:1] G2d4c2 | 
[V:2] e2d2e4 | 
[V:3] z8 | 
[V:4] z8 | 
[V:5] z8 | 
[V:6] z8 | 
[V:1] B2A2B2A2- | 
[V:2] d4z2d2 | 
[V:3] z8 | 
[V:4] z8 | 
[V:5] z8 | 
[V:6] z8 | 
[V:1] AGFED2B2- | 
[V:2] c2d3cBA | 
[V:3] z8 | 
[V:4] z8 | 
[V:5] z8 | 
[V:6] z8 | 
[V:1] BAGFEDG2- | 
[V:2] G2B2cBAG | 
[V:3] z8 | 
[V:4] z8 | 
[V:5] z8 | 
[V:6] z8 | 
[V:1] G2^F2G4 ||  
[V:2] A4G4 ||  
[V:3] z8 ||  
[V:4] z8 ||  
[V:5] z8 ||  
[V:6] z8 ||  
[V:1]  [K:F] [K:clef=treble][M:2/1]z8 | 
[V:2]  [K:F] [K:clef=treble-8][M:2/1]z8 | 
[V:3]  [K:F] [K:clef=treble-8][M:2/1]z8 | 
[V:4]  [K:F] [K:clef=treble-8][M:2/1]z8 | 
[V:5]  [K:F] [K:clef=bass][M:2/1]D,4G,,2B,2- | 
[V:6]  [K:F] [K:clef=bass][M:2/1]z8 | 
[V:1] z8 | 
[V:2] z8 | 
[V:3] z8 | 
[V:4] z8 | 
[V:5] B,A,G,4F,E, | 
[V:6] z8 | 
[V:1] z8 | 
[V:2] z8 | 
[V:3] z8 | 
[V:4] z8 | 
[V:5] F,4G,2G,,2 | 
[V:6] D,4G,,2B,2- | 
[V:1] z8 | 
[V:2] z8 | 
[V:3] z8 | 
[V:4] z8 | 
[V:5] B,,2C,2D,3C, | 
[V:6] B,A,G,4F,E, | 
[V:1] z8 | 
[V:2] z8 | 
[V:3] z8 | 
[V:4] z8 | 
[V:5] B,,2A,,2G,,A,,B,,C, | 
[V:6] F,4G,2G,,2 | 
[V:1] z8 | 
[V:2] z8 | 
[V:3] z8 | 
[V:4] z8 | 
[V:5] D,2E,2F,4 | 
[V:6] B,,2C,2D,3C, | 
[V:1] z8 | 
[V:2] z8 | 
[V:3] z8 | 
[V:4] z8 | 
[V:5] G,2A,2B,2A,2- | 
[V:6] B,,2A,,2G,,2C,2- | 
[V:1] z8 | 
[V:2] z8 | 
[V:3] z8 | 
[V:4] z8 | 
[V:5] A,G,G,4^F,2 | 
[V:6] C,B,,A,,G,,A,,4 | 
[V:1] z8 | 
[V:2] z8 | 
[V:3] z8 | 
[V:4] z8 | 
[V:5] G,4z2D,2 | 
[V:6] G,,8- | 
[V:1] z8 | 
[V:2] z8 | 
[V:3] z8 | 
[V:4] z8 | 
[V:5] D,3E,F,D,F,2- | 
[V:6] G,,4z2D,2 | 
[V:1] z8 | 
[V:2] z8 | 
[V:3] z8 | 
[V:4] z8 | 
[V:5] F,E,D,C,B,,4 | 
[V:6] D,3E,F,D,F,2- | 
[V:1] z8 | 
[V:2] z8 | 
[V:3] z8 | 
[V:4] z8 | 
[V:5] A,,4G,,2G,2 | 
[V:6] F,E,D,C,B,,2G,,2 | 
[V:1] z8 | 
[V:2] z8 | 
[V:3] z8 | 
[V:4] z8 | 
[V:5] G,3A,B,G,B,2- | 
[V:6] B,,2C,2D,4 | 
[V:1] z8 | 
[V:2] z8 | 
[V:3] z8 | 
[V:4] z8 | 
[V:5] B,A,G,F,E,D,G,2- | 
[V:6] B,,2C,3B,,_E,2- | 
[V:1] z8 | 
[V:2] z8 | 
[V:3] z8 | 
[V:4] z8 | 
[V:5] G,2F,2E,4 | 
[V:6] E,D,D,4^C,2 | 
[V:1] z8 | 
[V:2] z8 | 
[V:3] z8 | 
[V:4] z8 | 
[V:5] D,4z2D,2 | 
[V:6] D,8 | 
[V:1] z8 | 
[V:2] z8 | 
[V:3] z8 | 
[V:4] z8 | 
[V:5] G,3G,G,2G,2 | 
[V:6] z2G,,2C,3C, | 
[V:1] z8 | 
[V:2] z8 | 
[V:3] z8 | 
[V:4] z8 | 
[V:5] A,2A,2F,4 | 
[V:6] C,2C,2D,2D,2 | 
[V:1] z8 | 
[V:2] z8 | 
[V:3] z8 | 
[V:4] z8 | 
[V:5] z2D,2G,2G,G, | 
[V:6] B,,4z2G,,2 | 
[V:1] z8 | 
[V:2] z8 | 
[V:3] z8 | 
[V:4] z8 | 
[V:5] G,2G,2A,4 | 
[V:6] C,2C,C,C,2C,2 | 
[V:1] z8 | 
[V:2] z8 | 
[V:3] z8 | 
[V:4] z8 | 
[V:5] F,2F,2G,4 | 
[V:6] D,4B,,2C,2 | 
[V:1] z8 | 
[V:2] z8 | 
[V:3] z8 | 
[V:4] z8 | 
[V:5] E,2F,3E,D,C, | 
[V:6] C,2A,,2B,,3A,, | 
[V:1] z8 | 
[V:2] z8 | 
[V:3] z8 | 
[V:4] z8 | 
[V:5] B,,2D,2C,4 | 
[V:6] G,,F,,B,,4A,,2 | 
[V:1] z8 | 
[V:2] z8 | 
[V:3] z8 | 
[V:4] z8 | 
[V:5] B,,4z2D,2- | 
[V:6] B,,8 | 
[V:1] z8 | 
[V:2] z8 | 
[V:3] z8 | 
[V:4] z8 | 
[V:5] D,E,F,2B,,3C, | 
[V:6] z2D,3E,F,2 | 
[V:1] z8 | 
[V:2] z8 | 
[V:3] z8 | 
[V:4] z8 | 
[V:5] D,2G,,3A,,B,,C, | 
[V:6] B,,3C,D,2G,,A,, | 
[V:1] z8 | 
[V:2] z8 | 
[V:3] z8 | 
[V:4] z8 | 
[V:5] D,E,F,3D,E,2 | 
[V:6] B,,C,D,4C,2 | 
[V:1] z8 | 
[V:2] z8 | 
[V:3] z8 | 
[V:4] z8 | 
[V:5] C,D,E,F,G,A,B,2- | 
[V:6] A,,2C,4B,,2 | 
[V:1] z8 | 
[V:2] z8 | 
[V:3] z8 | 
[V:4] z8 | 
[V:5] B,2A,G,F,2G,2 | 
[V:6] G,,2A,,2B,,3A,, | 
[V:1] z8 | 
[V:2] z8 | 
[V:3] z8 | 
[V:4] z8 | 
[V:5] D,2G,4^F,2 | 
[V:6] B,,2C,2A,,4 | 
[V:1] z8 ||  
[V:2] z8 ||  
[V:3] z8 ||  
[V:4] z8 ||  
[V:5] G,8 ||  
[V:6] G,,8 ||  
[V:1]  [K:F] [K:clef=treble][M:2/1]z8 | 
[V:2]  [K:F] [K:clef=treble-8][M:2/1]z8 | 
[V:3]  [K:F] [K:clef=treble-8][M:2/1]B3cd2G2 | 
[V:4]  [K:F] [K:clef=treble-8][M:2/1]z8 | 
[V:5]  [K:F] [K:clef=bass][M:2/1]z8 | 
[V:6]  [K:F] [K:clef=bass][M:2/1]z4B,,3B,, | 
[V:1] z8 | 
[V:2] z8 | 
[V:3] B3cd2G2- | 
[V:4] z8 | 
[V:5] z8 | 
[V:6] B,,2B,,2B,,4 | 
[V:1] z8 | 
[V:2] z8 | 
[V:3] G2FED2d2- | 
[V:4] z8 | 
[V:5] z4F,3F, | 
[V:6] C,4B,,2B,,2- | 
[V:1] z8 | 
[V:2] z8 | 
[V:3] d2cBc4 | 
[V:4] z8 | 
[V:5] F,2F,2F,4 | 
[V:6] B,,2A,,G,,A,,4 | 
[V:1] z8 | 
[V:2] z8 | 
[V:3] B6A2- | 
[V:4] z8 | 
[V:5] G,4F,2F,2- | 
[V:6] G,,3A,,B,,C,D,2- | 
[V:1] z8 | 
[V:2] z8 | 
[V:3] A2d4^c2 | 
[V:4] z8 | 
[V:5] F,2E,D,E,4 | 
[V:6] D,2C,B,,A,,4 | 
[V:1] B3cd2G2 | 
[V:2] z8 | 
[V:3] d8- | 
[V:4] z4B4- | 
[V:5] D,2F,2F,2G,2- | 
[V:6] B,,6G,,2 | 
[V:1] B3cd2G2- | 
[V:2] z8 | 
[V:3] d4z4 | 
[V:4] B4B4 | 
[V:5] G,2F,E,D,2_E,2 | 
[V:6] G,,4z4 | 
[V:1] G2FED2d2- | 
[V:2] z4z2d2 | 
[V:3] z8 | 
[V:4] c4B2B2- | 
[V:5] C,D,=E,F,G,4 | 
[V:6] z8 | 
[V:1] d2cBc4 | 
[V:2] f6f2 | 
[V:3] z8 | 
[V:4] B2AGA4 | 
[V:5] z8 | 
[V:6] z8 | 
[V:1] B6A2- | 
[V:2] g4f2f2- | 
[V:3] z8 | 
[V:4] G3ABcd2- | 
[V:5] z8 | 
[V:6] z8 | 
[V:1] A2GFE4 | 
[V:2] fed4^c2 | 
[V:3] z8 | 
[V:4] d2G2A4 | 
[V:5] z8 | 
[V:6] z8 | 
[V:1] D4z4 | 
[V:2] d8- | 
[V:3] A4B2G2 | 
[V:4] D4z4 | 
[V:5] z8 | 
[V:6] z2F,2G,2G,,2 | 
[V:1] A4B2G2 | 
[V:2] d8- | 
[V:3] A4G2B2 | 
[V:4] z8 | 
[V:5] z2F,2G,2G,,2 | 
[V:6] D,4z4 | 
[V:1] A2A2G4 | 
[V:2] d8- | 
[V:3] A4z4 | 
[V:4] z2A2B2G2 | 
[V:5] D,4z4 | 
[V:6] z2F,2G,2G,,2 | 
[V:1] F2A2B2G2 | 
[V:2] d8- | 
[V:3] z8 | 
[V:4] A4G2B2 | 
[V:5] z2F,2G,2G,,2 | 
[V:6] D,4z4 | 
[V:1] A4G2B2- | 
[V:2] d8- | 
[V:3] z2A2B2G2 | 
[V:4] A4z4 | 
[V:5] D,4z2G,2 | 
[V:6] z2F,2G,2G,,2 | 
[V:1] BAA4G2 | 
[V:2] d8 | 
[V:3] A4B4 | 
[V:4] z4z2d2- | 
[V:5] G,2F,2G,4 | 
[V:6] D,4G,,4 | 
[V:1] A8- | 
[V:2] z8 | 
[V:3] A8- | 
[V:4] d2d2c2e2 | 
[V:5] F,3F,E,2E,2 | 
[V:6] D,3D,A,,2C,2 | 
[V:1] A8- | 
[V:2] z8 | 
[V:3] A8 | 
[V:4] f2d4^c2 | 
[V:5] D,2F,2E,4 | 
[V:6] D,4A,,4 | 
[V:1] A8- | 
[V:2] f3fe2e2 | 
[V:3] z2d2c2e2 | 
[V:4] d3dA2c2 | 
[V:5] D,4z4 | 
[V:6] z8 | 
[V:1] A8 | 
[V:2] d2f2e4 | 
[V:3] f2d4^c2 | 
[V:4] d2D2A4- | 
[V:5] z4E,4 | 
[V:6] z4A,,4 | 
[V:1] z8 | 
[V:2] d2A4A2 | 
[V:3] d8- | 
[V:4] A4D4- | 
[V:5] F,2D,4E,2 | 
[V:6] D,6C,2 | 
[V:1] z4A4 | 
[V:2] B4A4 | 
[V:3] d8 | 
[V:4] D8 | 
[V:5] F,2G,4^F,2 | 
[V:6] B,,2G,,2D,4 | 
[V:1] B2G4A2 | 
[V:2] G4g4 | 
[V:3] d4B4 | 
[V:4] D8 | 
[V:5] G,6F,2 | 
[V:6] G,,8 | 
[V:1] B2c4=B2 | 
[V:2] g2g2-gfd2 | 
[V:3] _e4d4 | 
[V:4] z4G4- | 
[V:5] _E,2C,2G,4 | 
[V:6] z4G,,4 | 
[V:1] c8 | 
[V:2] e2c4d2 | 
[V:3] c8- | 
[V:4] G4E4 | 
[V:5] C,4G,4 | 
[V:6] C,6B,,2 | 
[V:1] z2c4c2 | 
[V:2] e2f4e2 | 
[V:3] c4z2G2 | 
[V:4] A4G4 | 
[V:5] z8 | 
[V:6] A,,2F,,2C,4 | 
[V:1] c3BA2G2 | 
[V:2] f4z4 | 
[V:3] A2F4G2 | 
[V:4] F4c4 | 
[V:5] z8 | 
[V:6] F,,2F,4E,2 | 
[V:1] F2B2c4 | 
[V:2] f8 | 
[V:3] A2B4A2 | 
[V:4] d4c4 | 
[V:5] z2F,4F,2 | 
[V:6] D,2B,,2F,4 | 
[V:1] d6B2- | 
[V:2] d8 | 
[V:3] B6AG | 
[V:4] B8 | 
[V:5] F,4G,4 | 
[V:6] B,,4G,,4 | 
[V:1] B2AGF2A2- | 
[V:2] d8 | 
[V:3] B3cA2F2 | 
[V:4] z8 | 
[V:5] F,6D,2 | 
[V:6] D,8- | 
[V:1] ADG4^F2 | 
[V:2] d8 | 
[V:3] G2B2A4 | 
[V:4] z4z2d2 | 
[V:5] D,4z4 | 
[V:6] D,8 | 
[V:1] G2d2B2d2- | 
[V:2] z8 | 
[V:3] G8- | 
[V:4] B2d3cBA | 
[V:5] z2B,2G,2B,2- | 
[V:6] G,,8- | 
[V:1] dcB4AG | 
[V:2] z2d2B2d2- | 
[V:3] G4z4 | 
[V:4] G4G4 | 
[V:5] B,A,G,4F,E, | 
[V:6] G,,4z4 | 
[V:1] F2G2F4- | 
[V:2] dcB4AG | 
[V:3] z8 | 
[V:4] A2d4cB | 
[V:5] D,2G,,2D,4 | 
[V:6] z8 | 
[V:1] F2D2D2F2 | 
[V:2] F2F2G2A2 | 
[V:3] z8 | 
[V:4] A2BAGFF2- | 
[V:5] D,2B,,4A,,2 | 
[V:6] z8 | 
[V:1] G2B4A2 | 
[V:2] B4c4 | 
[V:3] z8 | 
[V:4] F2E2F4 | 
[V:5] G,,4F,,4 | 
[V:6] z8 | 
[V:1] B8- | 
[V:2] B8- | 
[V:3] z2d2B2d2- | 
[V:4] F4G2F2 | 
[V:5] B,,4z4 | 
[V:6] z2B,,2G,,2B,,2- | 
[V:1] B4z4 | 
[V:2] B4z4 | 
[V:3] dcBAG2A2 | 
[V:4] D4z2F2 | 
[V:5] z8 | 
[V:6] B,,A,,G,,4F,,2 | 
[V:1] z8 | 
[V:2] z8 | 
[V:3] B4A4 | 
[V:4] D2F3ED2- | 
[V:5] z8 | 
[V:6] G,,2D,3E,F,2 | 
[V:1] z8 | 
[V:2] z4z2d2 | 
[V:3] B2c2A4 | 
[V:4] D2C2D4 | 
[V:5] z8 | 
[V:6] D,2G,4^F,2 | 
[V:1] z2B2G2B2- | 
[V:2] B2d3cBA | 
[V:3] G2d2B2d2- | 
[V:4] z8 | 
[V:5] z8 | 
[V:6] G,6G,,2- | 
[V:1] BAGFE2D2- | 
[V:2] G2d2c2B2- | 
[V:3] dcBAG2F2 | 
[V:4] z8 | 
[V:5] z8 | 
[V:6] G,,A,,B,,2C,2D,2 | 
[V:1] D2C2D4- | 
[V:2] BAG4^F2 | 
[V:3] G4A4 | 
[V:4] z4z2d2 | 
[V:5] z8 | 
[V:6] _E,4D,4 | 
[V:1] D2G2B2c2 | 
[V:2] G2G3FE2 | 
[V:3] G2B4A2 | 
[V:4] B2d2d2c2 | 
[V:5] G,,6A,,2 | 
[V:6] G,,4z4 | 
[V:1] d4z2G2 | 
[V:2] D2d4c2 | 
[V:3] G2F2E4 | 
[V:4] B3AG4- | 
[V:5] B,,2B,,2C,4 | 
[V:6] z4z4 | 
[V:1] B3cd4 | 
[V:2] d8 | 
[V:3] D3EF2G2 | 
[V:4] G2F2B4 | 
[V:5] G,,2B,,2B,,2A,,G,, | 
[V:6] z2D,4E,2 | 
[V:1] z2A2B4 | 
[V:2] c4B2d2 | 
[V:3] C4D3E | 
[V:4] A4z4 | 
[V:5] A,,4G,,4 | 
[V:6] F,2F,2G,4 | 
[V:1] A4A4 | 
[V:2] d2c2f4 | 
[V:3] FGABc2d2 | 
[V:4] A6B2 | 
[V:5] z8 | 
[V:6] D,2F,2F,2E,D, | 
[V:1] G4F4- | 
[V:2] e4z2A2 | 
[V:3] G4A4 | 
[V:4] c2c2d4 | 
[V:5] z4z2F,2- | 
[V:6] E,4D,4 | 
[V:1] F4z4 | 
[V:2] c3de2f2 | 
[V:3] z4z2d2- | 
[V:4] A2c4BA | 
[V:5] F,2E,D,C,2D,2 | 
[V:6] z2E,2F,2D,2 | 
[V:1] z4A4 | 
[V:2] d2g4^f2 | 
[V:3] d2d2d4 | 
[V:4] B2B2A4 | 
[V:5] B,,2G,,2D,4 | 
[V:6] F,2G,2D,4 | 
[V:1] B4G4 | 
[V:2] g4z4 | 
[V:3] B2d4c2 | 
[V:4] G4z4 | 
[V:5] z2D,4E,2 | 
[V:6] G,,4B,,2C,2 | 
[V:1] A8 | 
[V:2] z8 | 
[V:3] c8 | 
[V:4] z4A4 | 
[V:5] (3C,3D,E,2F,4 | 
[V:6] A,,4F,,4 | 
[V:1] G4z4 | 
[V:2] z2d4e2 | 
[V:3] z2G4E2 | 
[V:4] B4G4 | 
[V:5] D,2G,,2B,,2C,2 | 
[V:6] G,,4z4 | 
[V:1] z4A4 | 
[V:2] (3c3de2f4 | 
[V:3] E2C2c4 | 
[V:4] A8 | 
[V:5] A,,4F,,4 | 
[V:6] z8 | 
[V:1] B4G4 | 
[V:2] d6c2 | 
[V:3] B2G4E2 | 
[V:4] G4z4 | 
[V:5] G,,2D,4E,2 | 
[V:6] G,,4B,,2C,2 | 
[V:1] A8 | 
[V:2] c8 | 
[V:3] E2C2C4 | 
[V:4] z4A4 | 
[V:5] (3C,3D,E,2F,4 | 
[V:6] A,,4F,,4 | 
[V:1] G2B2cBAG | 
[V:2] z2d4c2 | 
[V:3] z2G4C2 | 
[V:4] B4G4 | 
[V:5] D,4E,4 | 
[V:6] G,,4z4 | 
[V:1] F2G4^F2 | 
[V:2] d2e2d4 | 
[V:3] F2E2F4 | 
[V:4] A8 | 
[V:5] D,2C,2D,4 | 
[V:6] z8 | 
[V:1] [M:3/1]G12 | 
[V:2] [M:3/1]d8c4 | 
[V:3] [M:3/1]D8z4 | 
[V:4] [M:3/1]G12 | 
[V:5] [M:3/1]G,8E,4 | 
[V:6] [M:3/1]G,,4B,,4C,4 | 
[V:1] z12 | 
[V:2] A8z4 | 
[V:3] d8B4 | 
[V:4] z12 | 
[V:5] F,8G,4 | 
[V:6] D,8G,,4 | 
[V:1] A8F4 | 
[V:2] z12 | 
[V:3] c8d4 | 
[V:4] z12 | 
[V:5] F,4E,4D,4 | 
[V:6] A,,8z4 | 
[V:1] G8A4 | 
[V:2] z12 | 
[V:3] c4B4A4 | 
[V:4] z12 | 
[V:5] E,8F,4 | 
[V:6] z4G,4F,4 | 
[V:1] G4F8 | 
[V:2] z12 | 
[V:3] c6A2B4 | 
[V:4] z12 | 
[V:5] G,4A,4F,4 | 
[V:6] E,4D,8 | 
[V:1] E8z4 | 
[V:2] g8e4 | 
[V:3] c12 | 
[V:4] z12 | 
[V:5] G,4z4G,4 | 
[V:6] C,8C,4 | 
[V:1] d8d4 | 
[V:2] f8g4 | 
[V:3] F8z4 | 
[V:4] d8B4 | 
[V:5] B,8B,4 | 
[V:6] B,,8G,,4 | 
[V:1] c8B4 | 
[V:2] f4e4d4 | 
[V:3] z12 | 
[V:4] c8d4 | 
[V:5] A,6G,2F,4 | 
[V:6] A,,8B,,4 | 
[V:1] A8G4 | 
[V:2] z12 | 
[V:3] z12 | 
[V:4] c4B8 | 
[V:5] E,4F,4G,4 | 
[V:6] C,4D,4E,4 | 
[V:1] A8F4 | 
[V:2] A4c4d4 | 
[V:3] F8B4 | 
[V:4] A8z4 | 
[V:5] D,4z4z4 | 
[V:6] F,8B,,4 | 
[V:1] G8^F4 | 
[V:2] c4d8 | 
[V:3] G4A8 | 
[V:4] z12 | 
[V:5] C,4F,8 | 
[V:6] _E,4D,8 | 
[V:1] G12- | 
[V:2] B4c8 | 
[V:3] G12- | 
[V:4] z4z4G4 | 
[V:5] D,4E,8 | 
[V:6] G,,4C,8 | 
[V:1] G12 | 
[V:2] d8z4 | 
[V:3] G12- | 
[V:4] B6c2d4 | 
[V:5] D,4G,6F,2 | 
[V:6] G,,6A,,2B,,4 | 
[V:1] z8G4 | 
[V:2] z4z4d4 | 
[V:3] G12- | 
[V:4] c8=B4 | 
[V:5] E,4D,8 | 
[V:6] C,4G,,8 | 
[V:1] G6A2B4 | 
[V:2] e6f2g4 | 
[V:3] G12 | 
[V:4] c8B4 | 
[V:5] C,4E,4D,4 | 
[V:6] C,6B,,2G,,4 | 
[V:1] c8A4 | 
[V:2] c8f4 | 
[V:3] E8F4- | 
[V:4] A4G4F4 | 
[V:5] C,8z4 | 
[V:6] A,,4C,4D,4 | 
[V:1] d8^c4 | 
[V:2] d4e4e4 | 
[V:3] F2D2A4A4 | 
[V:4] B4c8 | 
[V:5] z4z4E,4 | 
[V:6] B,,4A,,8 | 
[V:1] [M:2/1]d4d4- | 
[V:2] [M:2/1]d4f4 | 
[V:3] [M:2/1]D4d4- | 
[V:4] [M:2/1]A4A4 | 
[V:5] [M:2/1]F,6D,2 | 
[V:6] [M:2/1]D,8 | 
[V:1] d4B4 | 
[V:2] g8- | 
[V:3] d8 | 
[V:4] B6G2 | 
[V:5] D,4z2D,2 | 
[V:6] G,,8 | 
[V:1] c8- | 
[V:2] g4e4 | 
[V:3] c3B/A/G4 | 
[V:4] G4z2G2 | 
[V:5] E,6C,2 | 
[V:6] C,8 | 
[V:1] c4A4 | 
[V:2] f8 | 
[V:3] F4c4 | 
[V:4] A6F2 | 
[V:5] C,4z2C,2 | 
[V:6] F,,8 | 
[V:1] B8- | 
[V:2] d4d4- | 
[V:3] B8- | 
[V:4] F8 | 
[V:5] D,3E,F,2D,2- | 
[V:6] B,,8 | 
[V:1] B4G4 | 
[V:2] d8- | 
[V:3] B8- | 
[V:4] G8- | 
[V:5] D,2G,,2B,,3C, | 
[V:6] G,,8- | 
[V:1] d8 | 
[V:2] d8- | 
[V:3] B8- | 
[V:4] G8- | 
[V:5] D,8- | 
[V:6] G,,8- | 
[V:1] B8 |]  
[V:2] d8 |]  
[V:3] B8 |]  
[V:4] G8 |]  
[V:5] D,8 |]  
[V:6] G,,8 |]  



